src/images/logo-black.svg

import React from "react";

function Icon() {
  return (
    <svg
      xmlns="http://www.w3.org/2000/svg"
      width="217"
      height="64"
      fill="none"
      viewBox="0 0 217 64"
    >
      <path
        fill="#000"
        d="M215.048 42.48c0 6.776-4.732 9.52-9.52 9.52H188V32.96h17.528c4.788 0 9.52 2.772 9.52 9.52zm-10.528 3.472c2.128 0 3.08-1.204 3.08-3.472s-.952-3.472-3.08-3.472h-8.288v6.944h8.288zM182.306 42.536c1.3.182 2.34.598 3.094 1.248s1.144 1.638 1.144 2.964c0 1.404-.39 2.548-1.144 3.406-.754.858-2.002 1.482-3.77 1.898-1.768.416-4.186.624-7.228.624-3.068 0-5.486-.208-7.202-.65-1.716-.416-2.964-1.118-3.718-2.054-.754-.936-1.17-2.21-1.222-3.822h8.476c.052.624.39 1.066.962 1.326s1.482.39 2.704.39c1.248 0 2.184-.104 2.756-.312.572-.208.884-.624.884-1.222 0-.546-.26-.936-.728-1.144-.494-.208-1.196-.312-2.08-.312h-4.264v-4.212h4.264c.832 0 1.482-.078 1.95-.286.468-.182.702-.546.702-1.092 0-.52-.286-.91-.858-1.118-.572-.208-1.43-.312-2.626-.312-1.144 0-1.976.13-2.522.364-.572.234-.858.598-.91 1.118h-7.956c.052-1.482.468-2.678 1.248-3.588.78-.884 1.976-1.56 3.614-1.976 1.638-.416 3.822-.65 6.526-.65 2.704 0 4.914.208 6.578.572 1.664.364 2.886.962 3.666 1.794.78.832 1.17 1.95 1.17 3.302 0 1.092-.312 1.924-.91 2.496-.624.572-1.482.936-2.6 1.092v.156z"
      ></path>
      <g filter="url(#filter0_d_722_93)">
        <path fill="#FF0340" d="M4 43V15.8h11.72V43H4z"></path>
      </g>
      <g filter="url(#filter1_d_722_93)">
        <path
          fill="#000"
          d="M70.88 15.8V43H59.12V26.52L52.56 43H42.28l-6.52-16.48V43H24V15.8h17.76l5.68 14.28 5.64-14.28h17.8zM84.412 43h-12.24l13.92-27.2h14.84l13.92 27.2h-12.24l-2-3.88h-14.2l-2 3.88zm9.12-19.8l-3.72 8.08h7.4l-3.68-8.08zm61.256 6.2c0 9.68-6.76 13.6-13.6 13.6h-25.04V15.8h25.04c6.84 0 13.6 3.96 13.6 13.6zm-15.04 4.96c3.04 0 4.4-1.72 4.4-4.96s-1.36-4.96-4.4-4.96h-11.84v9.92h11.84z"
        ></path>
      </g>
      <defs>
        <filter
          id="filter0_d_722_93"
          width="19.72"
          height="35.2"
          x="0"
          y="15.8"
          colorInterpolationFilters="sRGB"
          filterUnits="userSpaceOnUse"
        >
          <feFlood floodOpacity="0" result="BackgroundImageFix"></feFlood>
          <feColorMatrix
            in="SourceAlpha"
            result="hardAlpha"
            values="0 0 0 0 0 0 0 0 0 0 0 0 0 0 0 0 0 0 127 0"
          ></feColorMatrix>
          <feOffset dy="4"></feOffset>
          <feGaussianBlur stdDeviation="2"></feGaussianBlur>
          <feComposite in2="hardAlpha" operator="out"></feComposite>
          <feColorMatrix values="0 0 0 0 0 0 0 0 0 0 0 0 0 0 0 0 0 0 0.25 0"></feColorMatrix>
          <feBlend
            in2="BackgroundImageFix"
            result="effect1_dropShadow_722_93"
          ></feBlend>
          <feBlend
            in="SourceGraphic"
            in2="effect1_dropShadow_722_93"
            result="shape"
          ></feBlend>
        </filter>
        <filter
          id="filter1_d_722_93"
          width="138.788"
          height="35.2"
          x="20"
          y="15.8"
          colorInterpolationFilters="sRGB"
          filterUnits="userSpaceOnUse"
        >
          <feFlood floodOpacity="0" result="BackgroundImageFix"></feFlood>
          <feColorMatrix
            in="SourceAlpha"
            result="hardAlpha"
            values="0 0 0 0 0 0 0 0 0 0 0 0 0 0 0 0 0 0 127 0"
          ></feColorMatrix>
          <feOffset dy="4"></feOffset>
          <feGaussianBlur stdDeviation="2"></feGaussianBlur>
          <feComposite in2="hardAlpha" operator="out"></feComposite>
          <feColorMatrix values="0 0 0 0 0 0 0 0 0 0 0 0 0 0 0 0 0 0 0.25 0"></feColorMatrix>
          <feBlend
            in2="BackgroundImageFix"
            result="effect1_dropShadow_722_93"
          ></feBlend>
          <feBlend
            in="SourceGraphic"
            in2="effect1_dropShadow_722_93"
            result="shape"
          ></feBlend>
        </filter>
      </defs>
    </svg>
  );
}

export default Icon;

<svg width="217" height="64" viewBox="0 0 217 64" fill="none" xmlns="http://www.w3.org/2000/svg">
<path d="M215.048 42.48C215.048 49.256 210.316 52 205.528 52H188V32.96H205.528C210.316 32.96 215.048 35.732 215.048 42.48ZM204.52 45.952C206.648 45.952 207.6 44.748 207.6 42.48C207.6 40.212 206.648 39.008 204.52 39.008H196.232V45.952H204.52Z" fill="black"/>
<path d="M182.306 42.536C183.606 42.718 184.646 43.134 185.4 43.784C186.154 44.434 186.544 45.422 186.544 46.748C186.544 48.152 186.154 49.296 185.4 50.154C184.646 51.012 183.398 51.636 181.63 52.052C179.862 52.468 177.444 52.676 174.402 52.676C171.334 52.676 168.916 52.468 167.2 52.026C165.484 51.61 164.236 50.908 163.482 49.972C162.728 49.036 162.312 47.762 162.26 46.15H170.736C170.788 46.774 171.126 47.216 171.698 47.476C172.27 47.736 173.18 47.866 174.402 47.866C175.65 47.866 176.586 47.762 177.158 47.554C177.73 47.346 178.042 46.93 178.042 46.332C178.042 45.786 177.782 45.396 177.314 45.188C176.82 44.98 176.118 44.876 175.234 44.876H170.97V40.664H175.234C176.066 40.664 176.716 40.586 177.184 40.378C177.652 40.196 177.886 39.832 177.886 39.286C177.886 38.766 177.6 38.376 177.028 38.168C176.456 37.96 175.598 37.856 174.402 37.856C173.258 37.856 172.426 37.986 171.88 38.22C171.308 38.454 171.022 38.818 170.97 39.338H163.014C163.066 37.856 163.482 36.66 164.262 35.75C165.042 34.866 166.238 34.19 167.876 33.774C169.514 33.358 171.698 33.124 174.402 33.124C177.106 33.124 179.316 33.332 180.98 33.696C182.644 34.06 183.866 34.658 184.646 35.49C185.426 36.322 185.816 37.44 185.816 38.792C185.816 39.884 185.504 40.716 184.906 41.288C184.282 41.86 183.424 42.224 182.306 42.38V42.536Z" fill="black"/>
<g filter="url(#filter0_d_22_2)">
<path d="M4 43V15.8H15.72V43H4Z" fill="#FF0340"/>
</g>
<path d="M70.88 15.8V43H59.12V26.52L52.56 43H42.28L35.76 26.52V43H24V15.8C29.96 15.8 35.88 15.8 41.76 15.8L47.44 30.08L53.08 15.8C59.04 15.8 64.96 15.8 70.88 15.8ZM84.4122 43H72.1722L86.0922 15.8H100.932L114.852 43H102.612L100.612 39.12H86.4122L84.4122 43ZM93.5322 23.2L89.8122 31.28H97.2122L93.5322 23.2ZM154.788 29.4C154.788 39.08 148.028 43 141.188 43H116.148V15.8H141.188C148.028 15.8 154.788 19.76 154.788 29.4ZM139.748 34.36C142.788 34.36 144.148 32.64 144.148 29.4C144.148 26.16 142.788 24.44 139.748 24.44H127.908V34.36H139.748Z" fill="black"/>
<defs>
<filter id="filter0_d_22_2" x="0" y="15.8" width="19.72" height="35.2" filterUnits="userSpaceOnUse" color-interpolation-filters="sRGB">
<feFlood flood-opacity="0" result="BackgroundImageFix"/>
<feColorMatrix in="SourceAlpha" type="matrix" values="0 0 0 0 0 0 0 0 0 0 0 0 0 0 0 0 0 0 127 0" result="hardAlpha"/>
<feOffset dy="4"/>
<feGaussianBlur stdDeviation="2"/>
<feComposite in2="hardAlpha" operator="out"/>
<feColorMatrix type="matrix" values="0 0 0 0 0 0 0 0 0 0 0 0 0 0 0 0 0 0 0.25 0"/>
<feBlend mode="normal" in2="BackgroundImageFix" result="effect1_dropShadow_22_2"/>
<feBlend mode="normal" in="SourceGraphic" in2="effect1_dropShadow_22_2" result="shape"/>
</filter>
</defs>
</svg>
